X:117
T:Milking Pale. HA.116, The
M:C
L:1/8
Q:1/2=80
S:Henry Atkinson’s original MS,Hartburn,N’umberland,1694.
O:England
A:Hartburn,Northumberland
H:1/8
Z:vmp.Chris Partington.Jan.2004
K:C
“_No Key Or Time Sig. in MS”c2|G2e2d2B2|c3de2A2|G2E2F3G|(AB) (cA)B3c|
(de) (fd)e3f|(gf) (ed) (cB) (AG)|”-“G6:|
|:d2|(Bc) d2d2e2|(GA)B2B2(cd)|e2E2E2c2|”-“A6(Bc)|
d2G2G3F|E2G2c3B|A2c2f3e|
(de) (fd)g3f|(ed) (cB) (AG) c2|c3:|

